;FLAVOR:Marlin
;TIME:36868
;Filament used: 29.9894m
;Layer height: 0.3
;MINX:10.07
;MINY:46.05
;MINZ:0.3
;MAXX:97.57
;MAXY:253.95
;MAXZ:85.8
;Generated with Cura_SteamEngine 4.5.0
M140 S45
M105
M190 S45
M104 S210
M105
M109 S210
M82 ;absolute extrusion mode
M201 X500.00 Y500.00 Z100.00 E5000.00 ;Setup machine max acceleration
M203 X500.00 Y500.00 Z10.00 E50.00 ;Setup machine max feedrate
M204 P500.00 R1000.00 T500.00 ;Setup Print/Retract/Travel acceleration
M205 X8.00 Y8.00 Z0.40 E5.00 ;Setup Jerk
M220 S100 ;Reset Feedrate
M221 S100 ;Reset Flowrate

G28 ;Home
M420 S1 Z2 ;Enable ABL using saved Mesh and Fade Height

G92 E0 ;Reset Extruder
G1 Z2.0 F3000 ;Move Z Axis up
G1 X10.1 Y20 Z0.28 F5000.0 ;Move to start position
G1 X10.1 Y200.0 Z0.28 F1500.0 E15 ;Draw the first line
G1 X10.4 Y200.0 Z0.28 F5000.0 ;Move to side a little
G1 X10.4 Y20 Z0.28 F1500.0 E30 ;Draw the second line
G92 E0 ;Reset Extruder
G1 Z2.0 F3000 ;Move Z Axis up

G92 E0
G92 E0
G1 F1500 E-6.5
;LAYER_COUNT:286
;LAYER:0
M107
G0 F6000 X22.599 Y47.65 Z0.3
;TYPE:SKIRT
G1 F1500 E0
G1 F1200 X23.293 Y47.319 E0.02992
G1 X23.7 Y47.142 E0.04719
G1 X24.575 Y46.805 E0.08368
G1 X25.318 Y46.583 E0.11386
G1 X25.764 Y46.467 E0.13179
G1 X26.681 Y46.27 E0.16829
G1 X27.443 Y46.167 E0.19821
G1 X27.905 Y46.121 E0.21628
G1 X28.807 Y46.069 E0.25144
G1 X29.795 Y46.053 E0.28989
G1 X31.602 Y46.05 E0.36021
G1 X62.519 Y46.051 E1.56332
G1 X63.225 Y46.061 E1.5908
G1 X63.9 Y46.091 E1.61709
G1 X64.283 Y46.12 E1.63204
G1 X65.214 Y46.231 E1.66853
G1 X65.695 Y46.32 E1.68756
G1 X66.127 Y46.41 E1.70473
G1 X67.335 Y46.734 E1.7534
G1 X67.562 Y46.809 E1.76271
G1 X68.357 Y47.107 E1.79575
G1 X68.639 Y47.225 E1.80764
G1 X69.488 Y47.623 E1.84413
G1 X70.027 Y47.924 E1.86815
G1 X70.411 Y48.153 E1.88555
G1 X71.195 Y48.668 E1.92205
G1 X71.749 Y49.093 E1.94923
G1 X72.12 Y49.397 E1.96789
G1 X72.982 Y50.183 E2.01329
G1 X73.888 Y51.107 E2.06364
G1 X75.686 Y52.898 E2.1624
G1 X77.488 Y54.594 E2.2587
G1 X79.396 Y56.291 E2.35807
G1 X81.291 Y57.881 E2.45433
G1 X83.288 Y59.464 E2.55349
G1 X85.312 Y60.976 E2.65181
G1 X87.359 Y62.419 E2.74927
G1 X89.456 Y63.809 E2.84717
G1 X91.644 Y65.171 E2.94746
G1 X92.294 Y65.568 E2.9771
G1 X93.072 Y66.091 E3.01358
G1 X93.804 Y66.678 E3.0501
G1 X94.483 Y67.325 E3.08659
G1 X95.104 Y68.028 E3.1231
G1 X95.663 Y68.781 E3.15959
G1 X96.156 Y69.579 E3.19609
G1 X96.579 Y70.416 E3.23259
G1 X96.93 Y71.286 E3.26909
G1 X97.205 Y72.182 E3.30557
G1 X97.402 Y73.099 E3.34206
G1 X97.521 Y74.029 E3.37855
G1 X97.555 Y74.617 E3.40147
G1 X97.565 Y74.941 E3.41408
G1 X97.57 Y75.28 E3.42728
G1 X97.57 Y224.224 E9.22334
G1 X97.569 Y224.377 E9.22929
G1 X97.559 Y225.094 E9.2572
G1 X97.506 Y226.031 E9.29372
G1 X97.373 Y226.959 E9.3302
G1 X97.162 Y227.873 E9.3667
G1 X96.874 Y228.765 E9.40318
G1 X96.51 Y229.63 E9.4397
G1 X96.075 Y230.461 E9.4762
G1 X95.57 Y231.251 E9.51268
G1 X95 Y231.996 E9.54919
G1 X94.368 Y232.689 E9.58569
G1 X93.68 Y233.326 E9.62217
G1 X92.94 Y233.902 E9.65866
G1 X92.344 Y234.297 E9.68649
G1 X90.024 Y235.731 E9.79262
G1 X87.877 Y237.14 E9.89256
G1 X85.831 Y238.568 E9.98965
G1 X83.807 Y240.069 E10.08771
G1 X81.836 Y241.617 E10.18524
G1 X79.884 Y243.243 E10.2841
G1 X78.012 Y244.892 E10.38118
G1 X76.18 Y246.6 E10.47865
G1 X73.598 Y249.181 E10.62072
G1 X73.133 Y249.665 E10.64683
G1 X72.432 Y250.332 E10.68449
G1 X72.095 Y250.626 E10.70189
G1 X71.363 Y251.212 E10.73838
G1 X70.773 Y251.615 E10.76619
G1 X70.371 Y251.871 E10.78473
G1 X69.559 Y252.341 E10.82124
G1 X68.852 Y252.679 E10.85174
G1 X68.443 Y252.857 E10.86909
G1 X67.567 Y253.194 E10.90562
G1 X66.815 Y253.419 E10.93616
G1 X66.364 Y253.536 E10.9543
G1 X65.447 Y253.732 E10.99079
G1 X64.673 Y253.836 E11.02118
G1 X64.213 Y253.881 E11.03916
G1 X63.335 Y253.931 E11.07338
G1 X62.361 Y253.947 E11.11129
G1 X60.538 Y253.95 E11.18223
G1 X29.621 Y253.949 E12.38535
G1 X28.916 Y253.939 E12.41279
G1 X28.266 Y253.91 E12.43811
G1 X27.885 Y253.882 E12.45297
G1 X26.953 Y253.774 E12.48948
G1 X26.427 Y253.677 E12.5103
G1 X25.999 Y253.587 E12.52732
G1 X24.877 Y253.288 E12.5725
G1 X24.639 Y253.211 E12.58224
G1 X23.76 Y252.884 E12.61873
G1 X22.877 Y252.466 E12.65675
G1 X22.184 Y252.099 E12.68727
G1 X21.375 Y251.625 E12.72375
G1 X20.299 Y250.836 E12.77568
G1 X19.949 Y250.545 E12.79339
G1 X19.255 Y249.916 E12.82984
G1 X18.717 Y249.346 E12.86034
G1 X18.479 Y249.075 E12.87437
G1 X17.891 Y248.344 E12.91088
G1 X17.563 Y247.875 E12.93315
G1 X17.233 Y247.375 E12.95646
G1 X16.751 Y246.571 E12.99294
G1 X16.312 Y245.668 E13.03202
G1 X16.147 Y245.285 E13.04824
G1 X15.813 Y244.409 E13.08473
G1 X15.599 Y243.684 E13.11414
G1 X15.473 Y243.198 E13.13368
G1 X14.819 Y240.603 E13.23782
G1 X14.138 Y238.184 E13.33561
G1 X13.378 Y235.754 E13.43469
G1 X12.571 Y233.41 E13.53116
G1 X11.671 Y231.018 E13.63062
G1 X10.9 Y229.116 E13.71048
G1 X10.585 Y228.233 E13.74696
G1 X10.346 Y227.326 E13.78346
G1 X10.186 Y226.402 E13.81996
G1 X10.118 Y225.709 E13.84705
G1 X10.094 Y225.346 E13.86121
G1 X10.07 Y224.62 E13.88948
G1 X10.071 Y223.458 E13.9347
G1 X10.081 Y222.794 E13.96054
G1 X10.135 Y221.858 E13.99702
G1 X10.269 Y220.93 E14.03351
G1 X10.481 Y220.016 E14.07002
G1 X10.806 Y219.029 E14.11046
G1 X11.712 Y216.662 E14.20909
G1 X12.536 Y214.326 E14.30548
G1 X13.32 Y211.89 E14.40506
G1 X14.018 Y209.485 E14.50251
G1 X14.653 Y207.042 E14.60074
G1 X15.224 Y204.567 E14.69958
G1 X15.707 Y202.147 E14.79561
G1 X16.137 Y199.633 E14.89486
G1 X16.49 Y197.155 E14.99227
G1 X16.773 Y194.661 E15.08994
G1 X16.989 Y192.116 E15.18934
G1 X17.127 Y189.692 E15.28382
G1 X17.21 Y185.73 E15.43803
G1 X17.21 Y114.132 E18.22422
G1 X17.173 Y111.524 E18.32572
G1 X17.066 Y109.002 E18.42395
G1 X16.889 Y106.507 E18.52128
G1 X16.641 Y104.008 E18.61901
G1 X16.323 Y101.519 E18.71665
G1 X15.929 Y99.01 E18.81549
G1 X15.47 Y96.544 E18.9131
G1 X14.936 Y94.062 E19.01189
G1 X14.35 Y91.673 E19.10762
G1 X13.668 Y89.192 E19.20774
G1 X12.942 Y86.82 E19.30428
G1 X12.128 Y84.408 E19.40334
G1 X11.177 Y81.835 E19.51008
G1 X10.818 Y80.904 E19.54891
G1 X10.518 Y80.015 E19.58543
G1 X10.294 Y79.105 E19.6219
G1 X10.149 Y78.178 E19.65841
G1 X10.085 Y77.283 E19.69332
G1 X10.075 Y76.959 E19.70594
G1 X10.07 Y76.62 E19.71913
G1 X10.071 Y75.504 E19.76256
G1 X10.081 Y74.807 E19.78969
G1 X10.135 Y73.871 E19.82617
G1 X10.268 Y72.942 E19.86269
G1 X10.479 Y72.029 E19.89916
G1 X10.861 Y70.895 E19.94572
G1 X11.391 Y69.579 E20.00093
G1 X12.295 Y67.251 E20.09811
G1 X13.13 Y64.907 E20.19494
G1 X13.921 Y62.47 E20.29465
G1 X14.613 Y60.115 E20.39017
G1 X15.421 Y57.002 E20.51532
G1 X15.517 Y56.603 E20.53129
G1 X15.774 Y55.701 E20.56779
G1 X16.016 Y55.043 E20.59507
G1 X16.195 Y54.6 E20.61366
G1 X16.583 Y53.746 E20.65017
G1 X16.933 Y53.109 E20.67845
G1 X17.124 Y52.787 E20.69302
G1 X17.637 Y52.002 E20.72951
G1 X17.988 Y51.537 E20.75218
G1 X18.336 Y51.101 E20.77389
G1 X18.952 Y50.394 E20.81038
G1 X19.679 Y49.694 E20.84965
G1 X20.021 Y49.394 E20.86736
G1 X20.752 Y48.806 E20.90387
G1 X21.381 Y48.375 E20.93354
G1 X21.786 Y48.118 E20.9522
G1 X22.599 Y47.65 E20.98871
G0 F6000 X22.799 Y47.997
G1 F1200 X23.453 Y47.685 E21.01691
G1 X23.86 Y47.508 E21.03418
G1 X24.719 Y47.178 E21.06999
G1 X25.419 Y46.97 E21.0984
G1 X25.865 Y46.854 E21.11634
G1 X26.765 Y46.661 E21.15216
G1 X27.483 Y46.565 E21.18034
G1 X27.945 Y46.519 E21.19841
G1 X28.814 Y46.469 E21.23228
G1 X29.795 Y46.453 E21.27046
G1 X31.602 Y46.45 E21.34078
G1 X62.513 Y46.451 E22.54366
G1 X63.219 Y46.461 E22.57114
G1 X63.869 Y46.49 E22.59646
G1 X64.252 Y46.519 E22.61141
G1 X65.614 Y46.712 E22.66494
G1 X66.046 Y46.802 E22.68211
G1 X67.209 Y47.114 E22.72897
G1 X67.436 Y47.189 E22.73827
G1 X68.203 Y47.476 E22.77014
G1 X68.485 Y47.594 E22.78204
G1 X69.318 Y47.985 E22.81784
G1 X69.822 Y48.268 E22.84034
G1 X70.206 Y48.497 E22.85774
G1 X70.976 Y49.002 E22.89357
G1 X71.495 Y49.402 E22.91907
G1 X71.866 Y49.706 E22.93773
G1 X72.697 Y50.464 E22.9815
G1 X73.614 Y51.4 E23.03249
G1 X75.376 Y53.155 E23.12927
G1 X77.231 Y54.901 E23.2284
G1 X79.139 Y56.598 E23.32777
G1 X81.048 Y58.199 E23.42472
G1 X83.045 Y59.782 E23.52389
G1 X85.064 Y61.291 E23.62198
G1 X87.137 Y62.752 E23.72067
G1 X89.229 Y64.139 E23.81835
G1 X91.483 Y65.542 E23.92166
G1 X92.085 Y65.91 E23.94912
G1 X92.849 Y66.423 E23.98493
G1 X93.566 Y67.001 E24.02077
G1 X94.23 Y67.639 E24.0566
G1 X94.836 Y68.332 E24.09243
G1 X95.379 Y69.075 E24.12824
G1 X95.856 Y69.863 E24.16408
G1 X96.263 Y70.689 E24.19992
G1 X96.597 Y71.547 E24.23575
G1 X96.855 Y72.431 E24.27158
G1 X97.035 Y73.333 E24.30737
G1 X97.155 Y74.629 E24.35802
G1 X97.165 Y74.953 E24.37064
G1 X97.17 Y75.28 E24.38336
G1 X97.17 Y224.224 E30.17942
G1 X97.169 Y224.372 E30.18518
G1 X97.159 Y225.089 E30.21309
G1 X97.106 Y226.008 E30.24891
G1 X96.974 Y226.919 E30.28473
G1 X96.763 Y227.815 E30.32055
G1 X96.475 Y228.69 E30.3564
G1 X96.112 Y229.536 E30.39222
G1 X95.678 Y230.347 E30.42802
G1 X95.174 Y231.118 E30.46386
G1 X94.606 Y231.842 E30.49967
G1 X93.976 Y232.514 E30.53552
G1 X93.291 Y233.129 E30.57134
G1 X92.555 Y233.683 E30.60719
G1 X92.134 Y233.957 E30.62674
G1 X89.791 Y235.406 E30.73394
G1 X87.659 Y236.805 E30.83317
G1 X85.61 Y238.235 E30.93041
G1 X83.567 Y239.749 E31.02936
G1 X81.578 Y241.311 E31.12777
G1 X79.627 Y242.937 E31.22661
G1 X77.721 Y244.616 E31.32545
G1 X75.923 Y246.293 E31.42113
G1 X73.261 Y248.953 E31.56757
G1 X72.844 Y249.387 E31.59099
G1 X72.169 Y250.031 E31.6273
G1 X71.832 Y250.325 E31.6447
G1 X71.113 Y250.899 E31.6805
G1 X70.558 Y251.278 E31.70666
G1 X70.156 Y251.534 E31.7252
G1 X69.358 Y251.994 E31.76105
G1 X68.692 Y252.312 E31.78977
G1 X68.283 Y252.49 E31.80712
G1 X67.424 Y252.821 E31.84295
G1 X66.715 Y253.031 E31.87172
G1 X66.264 Y253.148 E31.88985
G1 X65.363 Y253.341 E31.92571
G1 X64.634 Y253.438 E31.95433
G1 X64.174 Y253.483 E31.97231
G1 X63.328 Y253.531 E32.00529
G1 X62.36 Y253.547 E32.04296
G1 X60.537 Y253.55 E32.1139
G1 X29.627 Y253.549 E33.31675
G1 X28.922 Y253.539 E33.34418
G1 X28.295 Y253.511 E33.36861
G1 X27.914 Y253.483 E33.38347
G1 X27 Y253.376 E33.41929
G1 X26.51 Y253.285 E33.43868
G1 X26.082 Y253.195 E33.4557
G1 X25 Y252.907 E33.49927
G1 X24.762 Y252.83 E33.509
G1 X23.899 Y252.509 E33.54484
G1 X23.064 Y252.112 E33.58081
G1 X22.371 Y251.745 E33.61133
G1 X21.577 Y251.28 E33.64714
G1 X20.555 Y250.529 E33.69649
G1 X20.205 Y250.238 E33.7142
G1 X19.524 Y249.619 E33.75002
G1 X19.017 Y249.082 E33.77875
G1 X18.779 Y248.811 E33.79279
G1 X18.203 Y248.093 E33.82861
G1 X17.897 Y247.655 E33.8494
G1 X17.567 Y247.155 E33.87272
G1 X17.094 Y246.365 E33.90855
G1 X16.679 Y245.51 E33.94553
G1 X16.514 Y245.127 E33.96176
G1 X16.187 Y244.266 E33.9976
G1 X15.986 Y243.584 E34.02527
G1 X15.861 Y243.1 E34.04472
G1 X15.209 Y240.511 E34.14862
G1 X14.516 Y238.052 E34.24803
G1 X13.762 Y235.64 E34.34637
G1 X12.944 Y233.267 E34.44405
G1 X12.046 Y230.876 E34.54344
G1 X11.271 Y228.966 E34.62365
G1 X10.962 Y228.099 E34.65947
G1 X10.73 Y227.208 E34.6953
G1 X10.576 Y226.3 E34.73114
G1 X10.517 Y225.682 E34.7553
G1 X10.493 Y225.319 E34.76945
G1 X10.47 Y224.62 E34.79667
G1 X10.471 Y223.464 E34.84165
G1 X10.481 Y222.8 E34.8675
G1 X10.535 Y221.881 E34.90332
G1 X10.668 Y220.97 E34.93915
G1 X10.88 Y220.074 E34.97498
G1 X11.18 Y219.172 E35.01197
G1 X12.079 Y216.823 E35.10984
G1 X12.922 Y214.434 E35.20843
G1 X13.699 Y212.019 E35.30715
G1 X14.401 Y209.601 E35.40513
G1 X15.044 Y207.126 E35.50464
G1 X15.612 Y204.662 E35.60304
G1 X16.107 Y202.186 E35.7013
G1 X16.529 Y199.72 E35.79866
G1 X16.89 Y197.185 E35.8983
G1 X17.172 Y194.704 E35.99547
G1 X17.386 Y192.172 E36.09435
G1 X17.527 Y189.695 E36.1909
G1 X17.61 Y185.739 E36.34488
G1 X17.61 Y114.126 E39.13165
G1 X17.573 Y111.501 E39.23381
G1 X17.466 Y108.993 E39.3315
G1 X17.288 Y106.472 E39.42984
G1 X17.038 Y103.954 E39.52831
G1 X16.717 Y101.443 E39.62682
G1 X16.33 Y98.981 E39.7238
G1 X15.861 Y96.459 E39.82363
G1 X15.328 Y93.98 E39.9223
G1 X14.732 Y91.551 E40.01963
G1 X14.06 Y89.107 E40.11827
G1 X13.317 Y86.68 E40.21704
G1 X12.51 Y84.289 E40.31524
G1 X11.536 Y81.653 E40.4246
G1 X11.191 Y80.76 E40.46185
G1 X10.897 Y79.888 E40.49766
G1 X10.68 Y78.993 E40.5335
G1 X10.541 Y78.083 E40.56932
G1 X10.485 Y77.271 E40.60099
G1 X10.475 Y76.947 E40.61361
G1 X10.47 Y76.62 E40.62633
G1 X10.471 Y75.51 E40.66953
G1 X10.481 Y74.813 E40.69665
G1 X10.534 Y73.894 E40.73248
G1 X10.667 Y72.983 E40.7683
G1 X10.878 Y72.087 E40.80412
G1 X11.232 Y71.043 E40.84702
G1 X11.753 Y69.752 E40.9012
G1 X12.669 Y67.394 E40.99964
G1 X13.515 Y65.017 E41.09782
G1 X14.287 Y62.643 E41.19497
G1 X15.004 Y60.201 E41.29401
G1 X15.813 Y57.086 E41.41925
G1 X15.906 Y56.696 E41.43485
G1 X16.159 Y55.811 E41.47067
G1 X16.387 Y55.193 E41.4963
G1 X16.566 Y54.75 E41.51489
G1 X16.948 Y53.912 E41.55073
G1 X17.277 Y53.313 E41.57733
G1 X17.468 Y52.991 E41.5919
G1 X17.972 Y52.221 E41.62771
G1 X18.3 Y51.787 E41.64888
G1 X18.648 Y51.351 E41.67059
G1 X19.253 Y50.657 E41.70641
G1 X19.943 Y49.994 E41.74365
G1 X20.285 Y49.694 E41.76135
G1 X21.003 Y49.118 E41.79717
G1 X21.596 Y48.713 E41.82512
G1 X22.001 Y48.456 E41.84379
G1 X22.799 Y47.997 E41.87961
G0 F6000 X22.998 Y48.344
G1 F1200 X23.612 Y48.052 E41.90607
G1 X24.019 Y47.875 E41.92334
G1 X24.862 Y47.552 E41.95847
G1 X25.52 Y47.357 E41.98517
G1 X25.966 Y47.241 E42.00311
G1 X26.849 Y47.053 E42.03824
G1 X27.522 Y46.963 E42.06466
G1 X27.984 Y46.917 E42.08273
G1 X28.82 Y46.868 E42.11532
G1 X29.796 Y46.853 E42.1533
G1 X31.603 Y46.85 E42.22362
G1 X62.507 Y46.851 E43.42623
G1 X63.213 Y46.861 E43.45371
G1 X63.839 Y46.889 E43.47809
G1 X64.222 Y46.918 E43.49304
G1 X65.532 Y47.103 E43.54452
G1 X65.964 Y47.193 E43.56169
G1 X67.084 Y47.494 E43.60682
G1 X67.311 Y47.569 E43.61613
G1 X68.048 Y47.845 E43.64675
G1 X68.33 Y47.963 E43.65865
G1 X69.147 Y48.348 E43.69379
G1 X69.617 Y48.612 E43.71477
G1 X70.001 Y48.841 E43.73217
G1 X70.756 Y49.337 E43.76732
G1 X71.242 Y49.711 E43.79119
G1 X71.613 Y50.015 E43.80985
G1 X72.412 Y50.745 E43.85197
G1 X73.324 Y51.676 E43.90268
G1 X75.121 Y53.465 E44.00136
G1 X76.938 Y55.175 E44.09846
G1 X78.88 Y56.902 E44.19959
G1 X80.788 Y58.503 E44.29651
G1 X82.803 Y60.1 E44.39656
G1 X84.84 Y61.623 E44.49554
G1 X86.908 Y63.08 E44.59398
G1 X89.018 Y64.478 E44.69248
G1 X91.227 Y65.854 E44.79375
G1 X91.877 Y66.251 E44.82339
G1 X92.626 Y66.756 E44.85855
G1 X93.327 Y67.324 E44.89366
G1 X93.976 Y67.953 E44.92883
G1 X94.566 Y68.636 E44.96395
G1 X95.094 Y69.369 E44.9991
G1 X95.555 Y70.146 E45.03426
G1 X95.945 Y70.96 E45.06938
G1 X96.261 Y71.806 E45.10453
G1 X96.502 Y72.677 E45.13969
G1 X96.665 Y73.565 E45.17483
G1 X96.755 Y74.641 E45.21685
G1 X96.77 Y75.28 E45.24172
G1 X96.77 Y224.224 E51.03778
G1 X96.759 Y225.083 E51.07121
G1 X96.706 Y225.985 E51.10637
G1 X96.574 Y226.878 E51.1415
G1 X96.364 Y227.756 E51.17663
G1 X96.076 Y228.613 E51.21181
G1 X95.714 Y229.44 E51.24694
G1 X95.28 Y230.232 E51.28209
G1 X94.778 Y230.983 E51.31724
G1 X94.212 Y231.686 E51.35236
G1 X93.585 Y232.336 E51.3875
G1 X92.903 Y232.929 E51.42267
G1 X91.924 Y233.617 E51.46924
G1 X89.566 Y235.075 E51.57712
G1 X87.432 Y236.475 E51.67644
G1 X85.365 Y237.918 E51.77454
G1 X83.328 Y239.428 E51.87321
G1 X81.342 Y240.988 E51.97149
G1 X79.369 Y242.631 E52.0714
G1 X77.467 Y244.307 E52.17005
G1 X75.621 Y246.029 E52.26829
G1 X72.997 Y248.651 E52.41264
G1 X72.556 Y249.11 E52.43741
G1 X71.906 Y249.729 E52.47234
G1 X71.569 Y250.023 E52.48974
G1 X70.863 Y250.586 E52.52488
G1 X70.343 Y250.941 E52.54938
G1 X69.941 Y251.197 E52.56793
G1 X69.158 Y251.647 E52.60307
G1 X68.532 Y251.946 E52.63007
G1 X68.123 Y252.124 E52.64743
G1 X67.28 Y252.447 E52.68256
G1 X66.614 Y252.644 E52.70959
G1 X66.163 Y252.761 E52.72772
G1 X65.28 Y252.949 E52.76285
G1 X64.595 Y253.04 E52.78974
G1 X64.135 Y253.085 E52.80773
G1 X63.321 Y253.131 E52.83945
G1 X62.36 Y253.147 E52.87685
G1 X60.537 Y253.15 E52.9478
G1 X29.632 Y253.149 E54.15044
G1 X28.927 Y253.139 E54.17788
G1 X28.324 Y253.113 E54.20137
G1 X27.943 Y253.085 E54.21623
G1 X27.047 Y252.979 E54.25135
G1 X26.592 Y252.894 E54.26936
G1 X26.164 Y252.804 E54.28638
G1 X25.123 Y252.527 E54.3283
G1 X24.885 Y252.45 E54.33803
G1 X24.039 Y252.134 E54.37317
G1 X23.251 Y251.759 E54.40713
G1 X22.558 Y251.392 E54.43765
G1 X21.78 Y250.934 E54.47278
G1 X20.811 Y250.221 E54.5196
G1 X20.461 Y249.93 E54.53731
