;FLAVOR:Marlin
;TIME:5029
;Filament used: 2.5492m
;Layer height: 0.2
;MINX:119
;MINY:132.67
;MINZ:0.2
;MAXX:181
;MAXY:164.67
;MAXZ:62.2
;POSTPROCESSED
;ChangeAtZ instances: 1
;Generated with Cura_SteamEngine 4.4.1
M140 S60
M105
M190 S60
M104 S220
M105
M109 S220
M82 ;absolute extrusion mode
M201 X500.00 Y500.00 Z100.00 E5000.00 ;Setup machine max acceleration
M203 X500.00 Y500.00 Z10.00 E50.00 ;Setup machine max feedrate
M204 P500.00 R1000.00 T500.00 ;Setup Print/Retract/Travel acceleration
M205 X8.00 Y8.00 Z0.40 E5.00 ;Setup Jerk
M220 S100 ;Reset Feedrate
M221 S100 ;Reset Flowrate
G28 ;Home
M420 S1 Z2 ;Enable ABL using saved Mesh and Fade Height
G92 E0 ;Reset Extruder
G1 Z2.0 F3000 ;Move Z Axis up
G1 X10.1 Y20 Z0.28 F5000.0 ;Move to start position
G1 X10.1 Y200.0 Z0.28 F1500.0 E15 ;Draw the first line
G1 X10.4 Y200.0 Z0.28 F5000.0 ;Move to side a little
G1 X10.4 Y20 Z0.28 F1500.0 E30 ;Draw the second line
G92 E0 ;Reset Extruder
G1 Z2.0 F3000 ;Move Z Axis up
G92 E0
G92 E0
G1 F1500 E-6.5
;LAYER_COUNT:311
;LAYER:0
M107
G0 F6000 X122.886 Y135.297 Z0.2
;TYPE:SKIRT
G1 F1500 E0
G1 F1200 X123.626 Y134.721 E0.03119
G1 X124.412 Y134.209 E0.06239
G1 X125.239 Y133.767 E0.09358
G1 X126.101 Y133.397 E0.12478
G1 X126.991 Y133.101 E0.15597
G1 X127.903 Y132.883 E0.18716
G1 X128.83 Y132.742 E0.21835
G1 X129.701 Y132.683 E0.24738
G1 X130.022 Y132.674 E0.25806
G1 X130.33 Y132.67 E0.26831
G1 X169.293 Y132.67 E1.56422
G1 X169.451 Y132.671 E1.56948
G1 X170.149 Y132.681 E1.5927
G1 X171.085 Y132.735 E1.62388
G1 X172.013 Y132.867 E1.65506
G1 X172.927 Y133.079 E1.68626
G1 X173.819 Y133.368 E1.71745
G1 X174.684 Y133.731 E1.74865
G1 X175.514 Y134.167 E1.77983
G1 X176.305 Y134.672 E1.81105
G1 X177.049 Y135.243 E1.84224
G1 X177.742 Y135.875 E1.87343
G1 X178.379 Y136.563 E1.90462
G1 X178.954 Y137.304 E1.93582
G1 X179.465 Y138.09 E1.967
G1 X179.907 Y138.918 E1.99821
G1 X180.276 Y139.78 E2.0294
G1 X180.571 Y140.67 E2.06059
G1 X180.789 Y141.582 E2.09177
G1 X180.929 Y142.51 E2.12299
G1 X180.987 Y143.371 E2.15169
G1 X180.996 Y143.691 E2.16234
G1 X181 Y144 E2.17262
G1 X181 Y152.934 E2.46976
G1 X180.999 Y153.07 E2.47429
G1 X180.99 Y153.797 E2.49847
G1 X180.939 Y154.734 E2.52968
G1 X180.807 Y155.662 E2.56085
G1 X180.598 Y156.576 E2.59204
G1 X180.311 Y157.469 E2.62324
G1 X179.949 Y158.335 E2.65446
G1 X179.515 Y159.166 E2.68564
G1 X179.011 Y159.957 E2.71683
G1 X178.442 Y160.702 E2.74801
G1 X177.811 Y161.397 E2.77923
G1 X177.124 Y162.035 E2.81042
G1 X176.385 Y162.612 E2.8416
G1 X175.599 Y163.124 E2.8728
G1 X174.773 Y163.567 E2.90397
G1 X173.911 Y163.939 E2.9352
G1 X173.022 Y164.235 E2.96637
G1 X172.11 Y164.455 E2.99757
G1 X171.183 Y164.596 E3.02876
G1 X170.299 Y164.657 E3.05823
G1 X169.978 Y164.666 E3.06891
G1 X169.67 Y164.67 E3.07915
G1 X130.707 Y164.67 E4.37507
G1 X130.565 Y164.669 E4.37979
G1 X129.867 Y164.66 E4.40301
G1 X128.931 Y164.608 E4.43419
G1 X128.002 Y164.476 E4.4654
G1 X127.088 Y164.266 E4.49659
G1 X126.195 Y163.979 E4.52779
G1 X125.33 Y163.616 E4.55899
G1 X124.499 Y163.182 E4.59017
G1 X123.708 Y162.678 E4.62136
G1 X122.963 Y162.108 E4.65256
G1 X122.269 Y161.477 E4.68376
G1 X121.632 Y160.79 E4.71492
G1 X121.055 Y160.05 E4.74613
G1 X120.543 Y159.264 E4.77733
G1 X120.1 Y158.437 E4.80853
G1 X119.729 Y157.576 E4.83972
G1 X119.433 Y156.686 E4.87091
G1 X119.214 Y155.774 E4.90211
G1 X119.073 Y154.847 E4.9333
G1 X119.013 Y153.958 E4.96293
G1 X119.004 Y153.625 E4.97401
G1 X119 Y153.328 E4.98389
G1 X119 Y144.344 E5.2827
G1 X119.001 Y144.195 E5.28765
G1 X119.01 Y143.53 E5.30977
G1 X119.063 Y142.594 E5.34096
G1 X119.195 Y141.665 E5.37216
G1 X119.406 Y140.751 E5.40336
G1 X119.694 Y139.859 E5.43454
G1 X120.057 Y138.994 E5.46574
G1 X120.492 Y138.163 E5.49694
G1 X120.996 Y137.373 E5.52811
G1 X121.566 Y136.628 E5.5593
G1 X122.198 Y135.934 E5.59052
G1 X122.886 Y135.297 E5.62171
G0 F6000 X123.274 Y135.493
G1 F1200 X124.01 Y134.94 E5.65233
G1 X124.791 Y134.452 E5.68296
G1 X125.611 Y134.034 E5.71357
G1 X126.465 Y133.689 E5.74421
G1 X127.345 Y133.419 E5.77482
G1 X128.245 Y133.227 E5.80543
G1 X129.159 Y133.113 E5.83606
G1 X129.712 Y133.083 E5.85448
G1 X130.033 Y133.074 E5.86516
G1 X130.33 Y133.07 E5.87504
G1 X169.293 Y133.07 E7.17096
G1 X169.445 Y133.071 E7.17601
G1 X170.143 Y133.081 E7.19923
G1 X171.062 Y133.134 E7.22985
G1 X171.973 Y133.267 E7.26047
G1 X172.869 Y133.478 E7.29109
G1 X173.743 Y133.766 E7.32169
G1 X174.59 Y134.129 E7.35234
G1 X175.401 Y134.564 E7.38295
G1 X176.171 Y135.068 E7.41356
G1 X176.895 Y135.637 E7.44419
G1 X177.567 Y136.267 E7.47482
G1 X178.182 Y136.952 E7.50544
G1 X178.735 Y137.688 E7.53606
G1 X179.222 Y138.469 E7.56667
G1 X179.639 Y139.29 E7.5973
G1 X179.984 Y140.144 E7.62794
G1 X180.253 Y141.024 E7.65854
G1 X180.445 Y141.925 E7.68918
G1 X180.558 Y142.838 E7.71978
G1 X180.587 Y143.382 E7.7379
G1 X180.596 Y143.702 E7.74855
G1 X180.6 Y144 E7.75846
G1 X180.6 Y152.934 E8.05561
G1 X180.599 Y153.065 E8.05996
G1 X180.59 Y153.792 E8.08414
G1 X180.539 Y154.711 E8.11476
G1 X180.408 Y155.623 E8.1454
G1 X180.198 Y156.519 E8.17601
G1 X179.912 Y157.394 E8.20663
G1 X179.551 Y158.241 E8.23725
G1 X179.117 Y159.053 E8.26787
G1 X178.615 Y159.825 E8.2985
G1 X178.047 Y160.55 E8.32914
G1 X177.419 Y161.223 E8.35975
G1 X176.735 Y161.839 E8.39037
G1 X176 Y162.393 E8.42098
G1 X175.22 Y162.882 E8.4516
G1 X174.4 Y163.301 E8.48223
G1 X173.547 Y163.647 E8.51284
G1 X172.667 Y163.918 E8.54347
G1 X171.767 Y164.111 E8.57408
G1 X170.853 Y164.226 E8.60472
G1 X170.288 Y164.257 E8.62354
G1 X169.967 Y164.266 E8.63422
G1 X169.67 Y164.27 E8.6441
G1 X130.707 Y164.27 E9.94002
G1 X130.57 Y164.269 E9.94457
G1 X129.872 Y164.26 E9.96779
G1 X128.953 Y164.208 E9.99841
G1 X128.042 Y164.077 E10.02902
G1 X127.146 Y163.867 E10.05963
G1 X126.271 Y163.58 E10.09025
G1 X125.424 Y163.218 E10.12089
G1 X124.612 Y162.784 E10.15151
G1 X123.841 Y162.282 E10.18211
G1 X123.116 Y161.714 E10.21275
G1 X122.443 Y161.085 E10.24339
G1 X121.828 Y160.401 E10.27398
G1 X121.274 Y159.666 E10.30459
G1 X120.786 Y158.885 E10.33522
G1 X120.367 Y158.065 E10.36585
G1 X120.021 Y157.212 E10.39647
G1 X119.751 Y156.332 E10.42708
G1 X119.558 Y155.431 E10.45773
G1 X119.444 Y154.518 E10.48833
G1 X119.413 Y153.947 E10.50735
G1 X119.404 Y153.614 E10.51843
G1 X119.4 Y153.328 E10.52794
G1 X119.4 Y144.344 E10.82675
G1 X119.401 Y144.201 E10.83151
G1 X119.41 Y143.536 E10.85363
G1 X119.462 Y142.616 E10.88428
G1 X119.594 Y141.705 E10.91489
G1 X119.805 Y140.809 E10.94551
G1 X120.092 Y139.934 E10.97614
G1 X120.455 Y139.088 E11.00676
G1 X120.889 Y138.276 E11.03738
G1 X121.392 Y137.505 E11.068
G1 X121.961 Y136.781 E11.09862
G1 X122.589 Y136.109 E11.12922
G1 X123.274 Y135.493 E11.15986
G0 F6000 X123.662 Y135.694
G1 F1200 X124.394 Y135.164 E11.18991
G1 X125.169 Y134.701 E11.21994
G1 X125.982 Y134.308 E11.24998
G1 X126.827 Y133.988 E11.28003
G1 X127.696 Y133.745 E11.31004
G1 X128.584 Y133.579 E11.34009
G1 X129.723 Y133.483 E11.3781
G1 X130.044 Y133.474 E11.38878
G1 X130.33 Y133.47 E11.3983
G1 X169.293 Y133.47 E12.69421
G1 X169.439 Y133.471 E12.69907
G1 X170.137 Y133.481 E12.72229
G1 X171.039 Y133.534 E12.75234
G1 X171.932 Y133.666 E12.78236
G1 X172.81 Y133.877 E12.8124
G1 X173.666 Y134.165 E12.84244
G1 X174.493 Y134.527 E12.87246
G1 X175.285 Y134.962 E12.90252
G1 X176.036 Y135.464 E12.93256
G1 X176.739 Y136.031 E12.9626
G1 X177.389 Y136.658 E12.99264
G1 X177.981 Y137.34 E13.02267
G1 X178.511 Y138.071 E13.05271
G1 X178.973 Y138.847 E13.08274
G1 X179.366 Y139.66 E13.11278
G1 X179.684 Y140.505 E13.14281
G1 X179.927 Y141.375 E13.17285
G1 X180.092 Y142.263 E13.20289
G1 X180.187 Y143.393 E13.24061
G1 X180.196 Y143.713 E13.25126
G1 X180.2 Y144 E13.2608
G1 X180.2 Y152.934 E13.55795
G1 X180.199 Y153.06 E13.56214
G1 X180.19 Y153.787 E13.58632
G1 X180.139 Y154.689 E13.61637
G1 X180.008 Y155.583 E13.64642
G1 X179.799 Y156.461 E13.67644
G1 X179.513 Y157.318 E13.70649
G1 X179.152 Y158.146 E13.73653
G1 X178.72 Y158.938 E13.76654
G1 X178.219 Y159.69 E13.79659
G1 X177.653 Y160.394 E13.82664
G1 X177.028 Y161.045 E13.85665
G1 X176.347 Y161.639 E13.88671
G1 X175.616 Y162.17 E13.91676
G1 X174.842 Y162.634 E13.94677
G1 X174.029 Y163.028 E13.97682
G1 X173.185 Y163.348 E14.00684
G1 X172.315 Y163.593 E14.03691
G1 X171.428 Y163.759 E14.06692
G1 X170.277 Y163.857 E14.10534
G1 X169.956 Y163.866 E14.11602
G1 X169.67 Y163.87 E14.12553
G1 X130.707 Y163.87 E15.42145
G1 X130.575 Y163.869 E15.42584
G1 X129.877 Y163.86 E15.44906
G1 X128.976 Y163.809 E15.47907
G1 X128.082 Y163.677 E15.50913
G1 X127.204 Y163.468 E15.53915
G1 X126.347 Y163.181 E15.56921
G1 X125.52 Y162.82 E15.59922
G1 X124.727 Y162.387 E15.62927
G1 X123.976 Y161.886 E15.6593
G1 X123.272 Y161.32 E15.68934
G1 X122.621 Y160.694 E15.71938
G1 X122.028 Y160.013 E15.74941
G1 X121.498 Y159.282 E15.77945
G1 X121.034 Y158.507 E15.80949
G1 X120.64 Y157.694 E15.83954
G1 X120.32 Y156.85 E15.86956
G1 X120.076 Y155.98 E15.89961
G1 X119.91 Y155.092 E15.92966
G1 X119.813 Y153.937 E15.96821
G1 X119.804 Y153.604 E15.97929
G1 X119.8 Y153.328 E15.98847
G1 X119.8 Y144.344 E16.28728
G1 X119.801 Y144.206 E16.29187
G1 X119.81 Y143.541 E16.31399
G1 X119.862 Y142.639 E16.34404
G1 X119.994 Y141.746 E16.37406
G1 X120.204 Y140.868 E16.40409
G1 X120.491 Y140.011 E16.43415
G1 X120.853 Y139.184 E16.46417
G1 X121.286 Y138.392 E16.4942
G1 X121.788 Y137.641 E16.52424
G1 X122.355 Y136.937 E16.55431
G1 X122.981 Y136.287 E16.58432
G1 X123.662 Y135.694 E16.61436
G1 F1500 E10.11436
;MESH:180-220_PLA_Temp_calibration.stl
G0 F6000 X130.414 Y143.005
G0 X130.414 Y144.084
G0 X131 Y152.67
;TYPE:WALL-INNER
G1 F1500 E16.61436
G1 F1200 X131 Y144.67 E16.88044
G1 X169 Y144.67 E18.14432
G1 X169 Y152.67 E18.4104
G1 X131 Y152.67 E19.67429
G0 F6000 X130.6 Y153.07
G1 F1200 X130.6 Y144.27 E19.96698
G1 X169.4 Y144.27 E21.25747
G1 X169.4 Y153.07 E21.55016
G1 X130.6 Y153.07 E22.84065
G0 F6000 X130.2 Y153.47
;TYPE:WALL-OUTER
G1 F1200 X130.2 Y143.87 E23.15995
G1 X169.8 Y143.87 E24.47705
G1 X169.8 Y153.47 E24.79635
G1 X130.2 Y153.47 E26.11345
G0 F6000 X130.47 Y153.2
G0 X131.11 Y152.28
G0 X131.39 Y152.28
;TYPE:SKIN
G1 F1200 X131.39 Y145.06 E26.35359
G1 X168.61 Y145.06 E27.59153
G1 X168.61 Y152.28 E27.83167
G1 X131.39 Y152.28 E29.06961
G0 F6000 X131.754 Y152.119
G1 F1200 X131.549 Y151.914 E29.07925
G0 F6000 X131.549 Y151.348
G1 F1200 X132.32 Y152.119 E29.11552
G0 F6000 X132.885 Y152.119
G1 F1200 X131.549 Y150.782 E29.17838
G0 F6000 X131.549 Y150.217
G1 F1200 X133.451 Y152.119 E29.26785
G0 F6000 X134.017 Y152.119
G1 F1200 X131.549 Y149.651 E29.38393
G0 F6000 X131.549 Y149.085
G1 F1200 X134.582 Y152.119 E29.52662
G0 F6000 X135.148 Y152.119
G1 F1200 X131.549 Y148.52 E29.69591
G0 F6000 X131.549 Y147.954
G1 F1200 X135.714 Y152.119 E29.89182
G0 F6000 X136.279 Y152.119
G1 F1200 X131.549 Y147.388 E30.11432
G0 F6000 X131.549 Y146.822
G1 F1200 X136.845 Y152.119 E30.36346
G0 F6000 X137.411 Y152.119
G1 F1200 X131.549 Y146.257 E30.63919
G0 F6000 X131.549 Y145.691
G1 F1200 X137.977 Y152.119 E30.94154
G0 F6000 X138.542 Y152.119
G1 F1200 X131.643 Y145.219 E31.26607
G0 F6000 X132.209 Y145.219
G1 F1200 X139.108 Y152.119 E31.5906
G0 F6000 X139.674 Y152.119
G1 F1200 X132.774 Y145.219 E31.91516
G0 F6000 X133.34 Y145.219
G1 F1200 X140.239 Y152.119 E32.23969
G0 F6000 X140.805 Y152.119
G1 F1200 X133.906 Y145.219 E32.56422
G0 F6000 X134.471 Y145.219
G1 F1200 X141.371 Y152.119 E32.88877
G0 F6000 X141.936 Y152.119
G1 F1200 X135.037 Y145.219 E33.21331
G0 F6000 X135.603 Y145.219
G1 F1200 X142.502 Y152.119 E33.53784
G0 F6000 X143.068 Y152.119
G1 F1200 X136.168 Y145.219 E33.86239
G0 F6000 X136.734 Y145.219
G1 F1200 X143.633 Y152.119 E34.18692
G0 F6000 X144.199 Y152.119
G1 F1200 X137.3 Y145.219 E34.51145
G0 F6000 X137.866 Y145.219
G1 F1200 X144.765 Y152.119 E34.83599
G0 F6000 X145.33 Y152.119
G1 F1200 X138.431 Y145.219 E35.16052
G0 F6000 X138.997 Y145.219
G1 F1200 X145.896 Y152.119 E35.48505
G0 F6000 X146.462 Y152.119
G1 F1200 X139.563 Y145.219 E35.80958
G0 F6000 X140.128 Y145.219
G1 F1200 X147.028 Y152.119 E36.13413
G0 F6000 X147.593 Y152.119
G1 F1200 X140.694 Y145.219 E36.45867
G0 F6000 X141.26 Y145.219
G1 F1200 X148.159 Y152.119 E36.7832
G0 F6000 X148.725 Y152.119
G1 F1200 X141.825 Y145.219 E37.10775
G0 F6000 X142.391 Y145.219
G1 F1200 X149.29 Y152.119 E37.43228
G0 F6000 X149.856 Y152.119
G1 F1200 X142.957 Y145.219 E37.75681
G0 F6000 X143.522 Y145.219
G1 F1200 X150.422 Y152.119 E38.08137
G0 F6000 X150.987 Y152.119
G1 F1200 X144.088 Y145.219 E38.4059
G0 F6000 X144.654 Y145.219
G1 F1200 X151.553 Y152.119 E38.73043
G0 F6000 X152.119 Y152.119
G1 F1200 X145.219 Y145.219 E39.05499
G0 F6000 X145.785 Y145.219
G1 F1200 X152.684 Y152.119 E39.37952
G0 F6000 X153.25 Y152.119
G1 F1200 X146.351 Y145.219 E39.70405
G0 F6000 X146.916 Y145.219
G1 F1200 X153.816 Y152.119 E40.0286
G0 F6000 X154.381 Y152.119
G1 F1200 X147.482 Y145.219 E40.35314
G0 F6000 X148.048 Y145.219
G1 F1200 X154.947 Y152.119 E40.67767
G0 F6000 X155.513 Y152.119
G1 F1200 X148.614 Y145.219 E41.0022
G0 F6000 X149.179 Y145.219
G1 F1200 X156.078 Y152.119 E41.32673
G0 F6000 X156.644 Y152.119
G1 F1200 X149.745 Y145.219 E41.65126
G0 F6000 X150.311 Y145.219
G1 F1200 X157.21 Y152.119 E41.97579
G0 F6000 X157.776 Y152.119
G1 F1200 X150.876 Y145.219 E42.30035
G0 F6000 X151.442 Y145.219
G1 F1200 X158.341 Y152.119 E42.62488
G0 F6000 X158.907 Y152.119
G1 F1200 X152.008 Y145.219 E42.94941
G0 F6000 X152.573 Y145.219
G1 F1200 X159.473 Y152.119 E43.27396
G0 F6000 X160.038 Y152.119
G1 F1200 X153.139 Y145.219 E43.5985
G0 F6000 X153.705 Y145.219
G1 F1200 X160.604 Y152.119 E43.92303
G0 F6000 X161.17 Y152.119
G1 F1200 X154.27 Y145.219 E44.24758
G0 F6000 X154.836 Y145.219
G1 F1200 X161.735 Y152.119 E44.57211
G0 F6000 X162.301 Y152.119
G1 F1200 X155.402 Y145.219 E44.89665
G0 F6000 X155.967 Y145.219
G1 F1200 X162.867 Y152.119 E45.2212
G0 F6000 X163.432 Y152.119
G1 F1200 X156.533 Y145.219 E45.54573
G0 F6000 X157.099 Y145.219
G1 F1200 X163.998 Y152.119 E45.87026
G0 F6000 X164.564 Y152.119
G1 F1200 X157.665 Y145.219 E46.19479
G0 F6000 X158.23 Y145.219
G1 F1200 X165.129 Y152.119 E46.51933
G0 F6000 X165.695 Y152.119
G1 F1200 X158.796 Y145.219 E46.84386
G0 F6000 X159.362 Y145.219
G1 F1200 X166.261 Y152.119 E47.16839
G0 F6000 X166.826 Y152.119
G1 F1200 X159.927 Y145.219 E47.49292
G0 F6000 X160.493 Y145.219
G1 F1200 X167.392 Y152.119 E47.81745
G0 F6000 X167.958 Y152.119
G1 F1200 X161.059 Y145.219 E48.14198
G0 F6000 X161.624 Y145.219
G1 F1200 X168.449 Y152.044 E48.46301
G0 F6000 X168.449 Y151.479
G1 F1200 X162.19 Y145.219 E48.75744
G0 F6000 X162.756 Y145.219
G1 F1200 X168.449 Y150.913 E49.02524
G0 F6000 X168.449 Y150.347
G1 F1200 X163.321 Y145.219 E49.26645
G0 F6000 X163.887 Y145.219
G1 F1200 X168.449 Y149.782 E49.48105
G0 F6000 X168.449 Y149.216
G1 F1200 X164.453 Y145.219 E49.66904
G0 F6000 X165.018 Y145.219
G1 F1200 X168.449 Y148.65 E49.83042
G0 F6000 X168.449 Y148.085
G1 F1200 X165.584 Y145.219 E49.9652
G0 F6000 X166.15 Y145.219
G1 F1200 X168.449 Y147.519 E50.07337
G0 F6000 X168.449 Y146.953
G1 F1200 X166.715 Y145.219 E50.15493
G0 F6000 X167.281 Y145.219
G1 F1200 X168.449 Y146.388 E50.20989
G0 F6000 X168.449 Y145.822
G1 F1200 X167.847 Y145.219 E50.23823
G0 F6000 X167.847 Y144.48
G1 F1500 E43.73823
;MESH:NONMESH
G0 F300 X167.847 Y144.48 Z0.4
G0 F6000 X131.182 Y144.852
G0 X131 Y152.67
;TIME_ELAPSED:88.204870
;LAYER:1
M140 S60
M106 S85
;TYPE:WALL-INNER
;MESH:180-220_PLA_Temp_calibration.stl
G1 F1500 E50.23823
G1 F1350 X131 Y144.67 E50.50431
G1 X169 Y144.67 E51.7682
G1 X169 Y152.67 E52.03428
G1 X131 Y152.67 E53.29816
G0 F7500 X130.6 Y153.07
G1 F1350 X130.6 Y144.27 E53.59085
G1 X169.4 Y144.27 E54.88134
G1 X169.4 Y153.07 E55.17403
G1 X130.6 Y153.07 E56.46453
G0 F7500 X130.2 Y153.47
;TYPE:WALL-OUTER
G1 F1350 X130.2 Y143.87 E56.78382
G1 X169.8 Y143.87 E58.10093
G1 X169.8 Y153.47 E58.42022
G1 X130.2 Y153.47 E59.73732
G0 F7500 X130.47 Y153.2
G0 X131.11 Y152.28
G0 X131.39 Y152.28
;TYPE:SKIN
G1 F1350 X131.39 Y145.06 E59.97746
G1 X168.61 Y145.06 E61.2154
G1 X168.61 Y152.28 E61.45554
G1 X131.39 Y152.28 E62.69349
G0 F7500 X131.11 Y152.28
G0 X131.11 Y145.636
G0 X131.549 Y145.636
G1 F1350 X131.966 Y145.219 E62.7131
G0 F7500 X132.532 Y145.219
G1 F1350 X131.549 Y146.202 E62.75934
